icons/evolvere-blue-folders-flat-vivid-dark-fallback/categories/64/applications-science.svg

<?xml version="1.0" encoding="UTF-8" standalone="no"?>
<!-- Created with Inkscape (http://www.inkscape.org/) -->

<svg
   xmlns:dc="http://purl.org/dc/elements/1.1/"
   xmlns:cc="http://creativecommons.org/ns#"
   xmlns:rdf="http://www.w3.org/1999/02/22-rdf-syntax-ns#"
   xmlns:svg="http://www.w3.org/2000/svg"
   xmlns="http://www.w3.org/2000/svg"
   xmlns:sodipodi="http://sodipodi.sourceforge.net/DTD/sodipodi-0.dtd"
   xmlns:inkscape="http://www.inkscape.org/namespaces/inkscape"
   width="64"
   height="64"
   id="svg13094"
   version="1.1"
   inkscape:version="0.91+devel r"
   sodipodi:docname="applications-science.svg">
  <sodipodi:namedview
     id="base"
     pagecolor="#ffffff"
     bordercolor="#666666"
     borderopacity="1.0"
     inkscape:pageopacity="0"
     inkscape:pageshadow="2"
     inkscape:zoom="11.313709"
     inkscape:cx="40.979495"
     inkscape:cy="33.326365"
     inkscape:document-units="px"
     inkscape:current-layer="svg13094"
     showgrid="true"
     inkscape:snap-bbox="true"
     inkscape:bbox-paths="true"
     inkscape:bbox-nodes="true"
     inkscape:snap-bbox-edge-midpoints="true"
     inkscape:snap-bbox-midpoints="true"
     inkscape:object-paths="true"
     inkscape:snap-intersection-paths="true"
     inkscape:object-nodes="true"
     inkscape:snap-smooth-nodes="true"
     inkscape:snap-midpoints="true"
     inkscape:snap-object-midpoints="true"
     inkscape:snap-center="true"
     showguides="false"
     inkscape:guide-bbox="true"
     inkscape:window-width="1920"
     inkscape:window-height="1023"
     inkscape:window-x="-10"
     inkscape:window-y="35"
     inkscape:window-maximized="1"
     inkscape:snap-global="true"
     fit-margin-top="0"
     fit-margin-left="0"
     fit-margin-right="0"
     fit-margin-bottom="0"
     showborder="true"
     inkscape:showpageshadow="false"
     inkscape:snap-page="true">
    <inkscape:grid
       type="xygrid"
       id="grid3075"
       empspacing="5"
       visible="true"
       enabled="true"
       snapvisiblegridlinesonly="true"
       originx="1.6362304e-08px"
       originy="18px" />
    <sodipodi:guide
       orientation="0,1"
       position="-11,30"
       id="guide9148" />
    <sodipodi:guide
       orientation="1,0"
       position="32,70"
       id="guide9150" />
  </sodipodi:namedview>
  <defs
     id="defs13096" />
  <metadata
     id="metadata13099">
    <rdf:RDF>
      <cc:Work
         rdf:about="">
        <dc:format>image/svg+xml</dc:format>
        <dc:type
           rdf:resource="http://purl.org/dc/dcmitype/StillImage" />
        <dc:title></dc:title>
      </cc:Work>
    </rdf:RDF>
  </metadata>
  <path
     id="path6538"
     d="m 0,4 0,30 0,28 2,2 30,0 30,0 2,-2 L 64,34 64,4 32,4 0,4 z"
     style="color:#000000;fill:#2a847b;fill-opacity:1;fill-rule:nonzero;stroke:none;stroke-width:2.28571415;marker:none;visibility:visible;display:inline;overflow:visible;enable-background:accumulate"
     inkscape:connector-curvature="0" />
  <path
     style="color:#000000;fill:#6bcfbb;fill-opacity:1;fill-rule:nonzero;stroke:none;marker:none;visibility:visible;display:inline;overflow:visible;enable-background:accumulate"
     d="M 2 0 L 0 1 L 0 4 L 19.5625 4 L 39.125 4 L 64 4 L 64 1 L 62 0 L 39.125 0 L 19.5625 0 L 2 0 z "
     id="path6688" />
  <g
     id="g3043"
     inkscape:export-filename="folder.png"
     inkscape:export-xdpi="90"
     inkscape:export-ydpi="90"
     transform="translate(-0.62500009,0.082283)" />
  <g
     id="scalable"
     transform="matrix(1.0385892,0,0,1.0385892,1214.7222,1878.8121)"
     inkscape:label="#g3701"
     style="fill:#ffffff" />
  <rect
     style="color:#000000;fill:#e7ecf0;fill-opacity:1;fill-rule:nonzero;stroke:none;stroke-width:2;marker:none;visibility:visible;display:inline;overflow:visible;enable-background:accumulate"
     id="rect4517"
     width="56"
     height="3"
     x="5"
     y="-54"
     transform="scale(1,-1)" />
  <path
     d="M 64,6 62,4 64,3 z"
     id="path3028"
     style="fill:#48a799;fill-opacity:1"
     inkscape:connector-curvature="0" />
  <path
     style="fill:#8cdaca;fill-opacity:1;fill-rule:nonzero"
     d="M 0,3 0,6 2,4 Z"
     id="path4298"
     inkscape:connector-curvature="0"
     sodipodi:nodetypes="cccc" />
  <path
     style="color:#000000;fill:#000000;fill-opacity:0.07795697;fill-rule:nonzero;stroke:none;stroke-width:2;marker:none;visibility:visible;display:inline;overflow:visible;enable-background:accumulate;opacity:1;stroke-linecap:butt;stroke-linejoin:miter;stroke-miterlimit:4;stroke-dasharray:none;stroke-dashoffset:0;stroke-opacity:1"
     d="M 22 17 L 22 33 L 22 53 L 34 53 L 34 33 L 34 17 L 22 17 z M 42 28 L 42 30 L 44 30 L 44 42 L 41.199219 46 L 41.1875 46 L 37 52 C 36.843665 52.201352 36.707977 52.380413 36.59375 52.544922 C 36.479523 52.709431 36.386758 52.859388 36.3125 53 L 60 53 L 61 53 L 61 54 L 5 54 L 5 57 L 12 64 L 62 64 L 64 62 L 64 54 L 61 51 L 60 51.035156 L 60 51 L 58.308594 51 L 54.8125 46 L 54.666016 46 L 52 42 L 52 30 L 54 30 L 54 28 L 42 28 z "
     id="path4069-3" />
  <g
     id="g4401"
     transform="translate(-1,0)">
    <path
       inkscape:connector-curvature="0"
       id="rect3000"
       d="M 35.1875,39 31,45 c -1.09391,1.408903 -0.999999,1.823222 -1,3 l 0,3 c 1e-6,1.000001 1,2 2,2 l 20,0 c 1,0 1.999999,-0.999999 2,-2 l 0,-3 c -10e-7,-1.176778 0.09391,-1.591097 -1,-3 l -4.1875,-6 -13.625,0 z"
       style="color:#000000;fill:#1892e9;fill-opacity:1;fill-rule:nonzero;stroke:none;stroke-width:2;marker:none;visibility:visible;display:inline;overflow:visible;enable-background:accumulate" />
    <path
       style="color:#000000;fill:#ffffff;fill-opacity:0.60912341;fill-rule:nonzero;stroke:none;stroke-width:6;marker:none;visibility:visible;display:inline;overflow:visible;enable-background:accumulate;opacity:1;stroke-linecap:butt;stroke-linejoin:miter;stroke-miterlimit:4;stroke-dasharray:none;stroke-dashoffset:0;stroke-opacity:1"
       d="M 35 21 L 35 22 L 35 23 L 37 23 L 37 35 L 30 45 C 28.90609 46.408903 29.000001 46.823222 29 48 L 29 51 C 29.000001 52.000001 30 53 31 53 L 51 53 C 52 53 52.999999 52.000001 53 51 L 53 48 C 52.999999 46.823222 53.09391 46.408903 52 45 L 45 35 L 45 23 L 47 23 L 47 22 L 47 21 L 39 21 L 35 21 z M 40 22 L 44 22 L 44 23 L 44 35 L 44 35.3125 L 44.1875 35.5625 L 51.1875 45.5625 L 51.1875 45.59375 L 51.21875 45.625 C 52.237417 46.936993 51.999999 46.770019 52 48 L 52 51 C 52 51.166668 51.874115 51.438385 51.65625 51.65625 C 51.438385 51.874115 51.166667 52 51 52 L 31 52 C 30.833333 52 30.561615 51.874115 30.34375 51.65625 C 30.125885 51.438385 30 51.166668 30 51 L 30 48 C 30.000001 46.770019 29.762583 46.936993 30.78125 45.625 L 30.8125 45.59375 L 30.8125 45.5625 L 35.226562 39.257812 L 32 47 L 32 51 L 33 51 L 34 51 L 37 51 L 39 51 L 39 47 L 40 35 L 40 22 z "
       transform="translate(1)"
       id="path3807" />
  </g>
  <g
     transform="translate(-1)"
     id="g4319">
    <path
       sodipodi:nodetypes="ccccc"
       inkscape:connector-curvature="0"
       id="path4327"
       d="m 16,26 12,0 0,27 -12,0 z"
       style="color:#000000;display:inline;overflow:visible;visibility:visible;fill:#5dc026;fill-opacity:1;fill-rule:nonzero;stroke:none;stroke-width:2;marker:none;enable-background:accumulate" />
    <path
       style="color:#000000;display:inline;overflow:visible;visibility:visible;fill:#ffffff;fill-opacity:0.60912341;fill-rule:nonzero;stroke:none;stroke-width:6;marker:none;enable-background:accumulate;opacity:1;stroke-linecap:butt;stroke-linejoin:miter;stroke-miterlimit:4;stroke-dasharray:none;stroke-dashoffset:0;stroke-opacity:1"
       d="M 15 13 L 15 14 L 15 53 L 16 53 L 27 53 L 27 14 L 27 13 L 20 13 L 16 13 L 15 13 z M 20 14 L 26 14 L 26 52 L 20 52 L 20 14 z "
       id="path4321"
       transform="translate(1)" />
    <path
       inkscape:connector-curvature="0"
       id="path4335"
       d="m 22,18 0,1 4,0 0,-1 -4,0 z m 0,4 0,1 4,0 0,-1 -4,0 z m 0,4 0,1 4,0 0,-1 -4,0 z m 0,4 0,1 4,0 0,-1 -4,0 z m 0,4 0,1 4,0 0,-1 -4,0 z m 0,4 0,1 4,0 0,-1 -4,0 z m 0,4 0,1 4,0 0,-1 -4,0 z m 0,4 0,1 4,0 0,-1 -4,0 z"
       style="color:#000000;display:inline;overflow:visible;visibility:visible;fill:#000000;fill-opacity:0.31484795;fill-rule:nonzero;stroke:none;stroke-width:2;marker:none;enable-background:accumulate" />
  </g>
  <rect
     style="color:#000000;fill:#aeb2be;fill-opacity:1;fill-rule:nonzero;stroke:none;stroke-width:2;marker:none;visibility:visible;display:inline;overflow:visible;enable-background:accumulate"
     id="rect4610"
     width="56"
     height="3"
     x="5"
     y="54" />
</svg>

<svg xmlns="http://www.w3.org/2000/svg" viewBox="0 0 64 64"><g color="#000"><path d="m0 4v30 28l2 2h30 30l2-2v-28-30h-32-32" fill="#2a847b"/><path d="m2 0l-2 1v3h19.563 19.563 24.875v-3l-2-1h-22.875-19.563-17.563" fill="#6bcfbb"/><path transform="scale(1-1)" fill="#e7ecf0" d="m5-54h56v3h-56z"/></g><path d="m64 6l-2-2 2-1z" fill="#48a799"/><path d="m0 3v3l2-2" fill="#8cdaca"/><g color="#000"><path d="m22 17v16 20h12v-20-16h-12m20 11v2h2v12l-2.801 4h-.012l-4.188 6c-.156.201-.292.38-.406.545-.114.165-.207.314-.281.455h23.688 1v1h-56v3l7 7h50l2-2v-8l-3-3-1 .035v-.035h-1.691l-3.496-5h-.146l-2.666-4v-12h2v-2h-12" fill-opacity=".078"/><g transform="translate(-1)"><path d="m35.19 39l-4.188 6c-1.094 1.409-1 1.823-1 3v3c0 1 1 2 2 2h20c1 0 2-1 2-2v-3c0-1.177.094-1.591-1-3l-4.188-6h-13.625" fill="#1892e9"/><path d="m35 21v1 1h2v12l-7 10c-1.094 1.409-1 1.823-1 3v3c0 1 1 2 2 2h20c1 0 2-1 2-2v-3c0-1.177.094-1.591-1-3l-7-10v-12h2v-1-1h-8-4m5 1h4v1 12 .313l.188.25 7 10v.031l.031.031c1.019 1.312.781 1.145.781 2.375v3c0 .167-.126.438-.344.656-.218.218-.49.344-.656.344h-20c-.167 0-.438-.126-.656-.344-.218-.218-.344-.49-.344-.656v-3c0-1.23-.237-1.063.781-2.375l.031-.031v-.031l4.414-6.305-3.227 7.742v4h1 1 3 2v-4l1-12v-13" transform="translate(1)" fill-opacity=".609" fill="#fff"/></g><g transform="translate(-1)"><path d="m16 26h12v27h-12z" fill="#5dc026"/><path d="m15 13v1 39h1 11v-39-1h-7-4-1m5 1h6v38h-6v-38" transform="translate(1)" fill-opacity=".609" fill="#fff"/><path d="m22 18v1h4v-1h-4m0 4v1h4v-1h-4m0 4v1h4v-1h-4m0 4v1h4v-1h-4m0 4v1h4v-1h-4m0 4v1h4v-1h-4m0 4v1h4v-1h-4m0 4v1h4v-1h-4" fill-opacity=".315"/></g><path fill="#aeb2be" d="m5 54h56v3h-56z"/></g></svg>
